fs/navigation_unread_20_regular.svg

<svg viewBox="0 0 20 20" fill="none" xmlns="http://www.w3.org/2000/svg" height="1em" width="1em">
  <path d="M17.9937 4.42017C17.9979 4.364 18 4.30725 18 4.25C18 3.00736 16.9926 2 15.75 2C14.5919 2 13.6381 2.87501 13.5137 4C13.513 4.00664 13.5123 4.01329 13.5116 4.01995C13.5039 4.09559 13.5 4.17233 13.5 4.25C13.5 4.51298 13.5451 4.76542 13.628 5C13.9369 5.87389 14.7703 6.5 15.75 6.5C16.8337 6.5 17.7384 5.73387 17.9522 4.71368C17.9529 4.71027 17.9536 4.70687 17.9543 4.70345C17.9732 4.61097 17.9865 4.51641 17.9937 4.42017ZM2.5 4H12.5095C12.5032 4.08251 12.5 4.16588 12.5 4.25C12.5 4.50813 12.5301 4.75924 12.587 5H2.5C2.22386 5 2 4.77614 2 4.5C2 4.22386 2.22386 4 2.5 4ZM2 9.5C2 9.22386 2.22386 9 2.5 9H17.5C17.7761 9 18 9.22386 18 9.5C18 9.77614 17.7761 10 17.5 10H2.5C2.22386 10 2 9.77614 2 9.5ZM2.5 14C2.22386 14 2 14.2239 2 14.5C2 14.7761 2.22386 15 2.5 15H17.5C17.7761 15 18 14.7761 18 14.5C18 14.2239 17.7761 14 17.5 14H2.5Z" fill="#212121"/>
</svg>

<svg viewBox="0 0 20 20" fill="none" xmlns="http://www.w3.org/2000/svg" height="1em" width="1em">
  <path d="M17.994 4.42a2.25 2.25 0 1 0-.041.294l.001-.01c.02-.093.032-.188.04-.284ZM2.5 4h10.01a3.283 3.283 0 0 0 .077 1H2.5a.5.5 0 0 1 0-1ZM2 9.5a.5.5 0 0 1 .5-.5h15a.5.5 0 0 1 0 1h-15a.5.5 0 0 1-.5-.5Zm.5 4.5a.5.5 0 0 0 0 1h15a.5.5 0 0 0 0-1h-15Z" fill="#212121"/>
</svg>
